website/media/images/svg/main-page-card-1.svg

<svg width="64" height="64" viewBox="0 0 64 64" fill="none" xmlns="http://www.w3.org/2000/svg">
<g clip-path="url(#clip0)">
<path d="M0.950195 63.0493H49.1084V13.4565L36.6025 0.950684H0.950195V63.0493Z" fill="#E6E6E6"/>
<path d="M49.1084 13.4565H36.6025V0.950684" fill="#CCCCCC"/>
<path d="M62.8374 24.2285L51.8857 50.9951L45.2954 57.0625L44.8481 48.1157L55.7998 21.3491C56.1123 20.5859 56.9868 20.2192 57.7505 20.5313L62.02 22.2783C62.7832 22.5908 63.1499 23.4649 62.8374 24.2285Z" fill="#4FD68D"/>
<path d="M59.8848 21.4048L45.2954 57.0625L44.8481 48.1157L55.7998 21.3491C56.1118 20.5859 56.9863 20.2192 57.75 20.5313L59.8848 21.4048Z" fill="#009846"/>
<path d="M51.8857 50.9951L45.2954 57.0625L45.2607 56.3647L44.8481 48.1157L51.8857 50.9951Z" fill="#545D68"/>
<path d="M62.8374 24.2285L60.7163 29.4131L53.6787 26.5337L55.7998 21.3491C56.1123 20.5859 56.9868 20.2192 57.75 20.5313L62.0195 22.2783C62.7832 22.5908 63.1499 23.4649 62.8374 24.2285Z" fill="#545D68"/>
<path d="M59.6104 21.2925L56.9229 27.8608L53.6787 26.5337L55.7998 21.3491C56.1123 20.5859 56.9868 20.2192 57.7505 20.5313L59.6104 21.2925Z" fill="#3B454F"/>
<path d="M44.8481 48.1157L48.0923 49.4434L45.2607 56.3647L44.8481 48.1157Z" fill="#3B454F"/>
<path d="M63.7085 22.7168C63.4561 22.1143 62.9839 21.646 62.3794 21.3989L58.1099 19.6519C57.5059 19.4048 56.8408 19.4072 56.2383 19.6602C55.6353 19.9131 55.1675 20.3853 54.9199 20.9893L50.0596 32.8687V13.4565C50.0596 13.2046 49.9595 12.9624 49.7813 12.7842L37.2749 0.27832C37.0967 0.100098 36.855 0 36.603 0H0.950684C0.425781 0 0 0.425781 0 0.950684V8.28613C0 8.81104 0.425781 9.23682 0.950684 9.23682C1.47559 9.23682 1.90088 8.81104 1.90088 8.28613V1.90088H35.6519V13.4565C35.6519 13.9814 36.0776 14.4067 36.6025 14.4067H48.1587V37.5151L43.9683 47.7559C43.9155 47.8848 43.8916 48.0239 43.8989 48.1631L44.3462 57.1099C44.3647 57.478 44.5942 57.8022 44.9356 57.9419C45.0518 57.9897 45.1738 58.0127 45.2954 58.0127C45.5298 58.0127 45.7603 57.9263 45.939 57.7617L48.1582 55.7188V62.0991H1.90088V12.0884C1.90088 11.5635 1.47559 11.1377 0.950684 11.1377C0.425781 11.1377 0 11.5635 0 12.0884V63.0493C0 63.5742 0.425781 64 0.950684 64H49.1089C49.6338 64 50.0596 63.5742 50.0596 63.0493V53.9688L52.5298 51.6948C52.6323 51.6001 52.7124 51.4844 52.7656 51.3555L57.0747 40.8232C57.2734 40.3374 57.0405 39.7822 56.5547 39.5835C56.0693 39.3848 55.5142 39.6172 55.3154 40.103L51.3657 49.7559L46.0874 47.5962L54.1982 27.7734L59.4766 29.9331L56.6782 36.7725C56.4795 37.2583 56.7119 37.8135 57.1982 38.0122C57.6841 38.2109 58.2388 37.9785 58.4375 37.4927L63.7173 24.5889C63.9644 23.9844 63.9614 23.3193 63.7085 22.7168ZM37.5532 3.24463L46.8145 12.5063H37.5532V3.24463ZM45.8721 49.5615L50.1421 51.3086L46.1436 54.9897L45.8721 49.5615ZM61.9575 23.8687L60.1963 28.1733L54.918 26.0137L56.6792 21.709C56.7344 21.5747 56.8389 21.4697 56.9732 21.4136C57.1079 21.3569 57.2559 21.356 57.3901 21.4111L61.6597 23.1582C61.794 23.2129 61.8989 23.3174 61.9551 23.4517C62.0117 23.5864 62.0127 23.7344 61.9575 23.8687Z" fill="black"/>
<path d="M31.6313 10.377H19.8457C19.3208 10.377 18.895 10.8022 18.895 11.3271C18.895 11.8521 19.3208 12.2778 19.8457 12.2778H31.6313C32.1562 12.2778 32.582 11.8521 32.582 11.3271C32.582 10.8022 32.1562 10.377 31.6313 10.377Z" fill="black"/>
<path d="M7.35107 31.2236H14.8657C15.3906 31.2236 15.8159 30.7979 15.8159 30.273V23.5415L17.2344 21.7359C17.5586 21.3233 17.4868 20.7256 17.0742 20.4014C16.6616 20.0772 16.064 20.1489 15.7398 20.5615L14.7603 21.8081H7.35107C6.82617 21.8081 6.40039 22.2334 6.40039 22.7583V30.273C6.40039 30.7979 6.82617 31.2236 7.35107 31.2236ZM8.30127 23.709H13.2666L11.7539 25.6343L10.6963 24.5762C10.3252 24.2051 9.72315 24.2051 9.35205 24.5762C8.98096 24.9478 8.98096 25.5493 9.35205 25.9204L11.1675 27.7358C11.3462 27.9146 11.5884 28.0142 11.8394 28.0142C11.8584 28.0142 11.8774 28.0137 11.8965 28.0127C12.1675 27.9966 12.4189 27.8648 12.5869 27.6509L13.915 25.9609V29.3228H8.30127V23.709Z" fill="black"/>
<path d="M41.769 23.2842H21.4297C20.9048 23.2842 20.479 23.71 20.479 24.2349C20.479 24.7598 20.9048 25.1855 21.4297 25.1855H41.769C42.2944 25.1855 42.7197 24.7598 42.7197 24.2349C42.7197 23.71 42.2944 23.2842 41.769 23.2842Z" fill="black"/>
<path d="M21.4297 29.7476H37.7773C38.3022 29.7476 38.7275 29.3218 38.7275 28.7969C38.7275 28.272 38.3022 27.8467 37.7773 27.8467H21.4297C20.9048 27.8467 20.479 28.272 20.479 28.7969C20.479 29.3218 20.9048 29.7476 21.4297 29.7476Z" fill="black"/>
<path d="M6.40039 42.7554C6.40039 43.2803 6.82617 43.7061 7.35107 43.7061H14.8657C15.3906 43.7061 15.8159 43.2803 15.8159 42.7554V36.0239L17.2344 34.2183C17.5586 33.8057 17.4868 33.208 17.0742 32.8838C16.6616 32.5596 16.064 32.6314 15.7398 33.044L14.7603 34.2905H7.35107C6.82617 34.2905 6.40039 34.7158 6.40039 35.2407V42.7554ZM8.30127 36.1914H13.2666L11.7539 38.1167L10.6963 37.0586C10.3252 36.6875 9.72315 36.6875 9.35205 37.0586C8.98096 37.4302 8.98096 38.0318 9.35205 38.4028L11.1675 40.2183C11.3462 40.397 11.5884 40.4966 11.8394 40.4966C11.8584 40.4966 11.8774 40.4961 11.8965 40.4951C12.1675 40.479 12.4189 40.3472 12.5869 40.1333L13.915 38.4434V41.8052H8.30127V36.1914Z" fill="black"/>
<path d="M41.769 35.7666H21.4297C20.9048 35.7666 20.479 36.1924 20.479 36.7173C20.479 37.2422 20.9048 37.6675 21.4297 37.6675H41.769C42.2944 37.6675 42.7197 37.2422 42.7197 36.7173C42.7197 36.1924 42.2944 35.7666 41.769 35.7666Z" fill="black"/>
<path d="M21.4297 42.23H27.5127C28.0376 42.23 28.4629 41.8042 28.4629 41.2793C28.4629 40.7544 28.0376 40.3291 27.5127 40.3291H21.4297C20.9048 40.3291 20.479 40.7544 20.479 41.2793C20.479 41.8042 20.9048 42.23 21.4297 42.23Z" fill="black"/>
<path d="M6.40039 55.2378C6.40039 55.7627 6.82617 56.1885 7.35107 56.1885H14.8657C15.3906 56.1885 15.8159 55.7627 15.8159 55.2378V47.7236C15.8159 47.1987 15.3906 46.7729 14.8657 46.7729H7.35107C6.82617 46.7729 6.40039 47.1987 6.40039 47.7236V55.2378ZM8.30127 48.6738H13.915V54.2871H8.30127V48.6738Z" fill="black"/>
<path d="M42.7197 49.1997C42.7197 48.6748 42.2944 48.249 41.769 48.249H21.4297C20.9048 48.249 20.479 48.6748 20.479 49.1997C20.479 49.7246 20.9048 50.1499 21.4297 50.1499H41.769C42.2944 50.1499 42.7197 49.7246 42.7197 49.1997Z" fill="black"/>
<path d="M21.4297 52.811C20.9048 52.811 20.479 53.2368 20.479 53.7617C20.479 54.2866 20.9048 54.7124 21.4297 54.7124H38.7275C39.2529 54.7124 39.6782 54.2866 39.6782 53.7617C39.6782 53.2368 39.2529 52.811 38.7275 52.811H21.4297Z" fill="black"/>
</g>
<defs>
<clipPath id="clip0">
<rect width="64" height="64" fill="white"/>
</clipPath>
</defs>
</svg>

<svg width="64" height="64" viewBox="0 0 64 64" fill="none" xmlns="http://www.w3.org/2000/svg"><g clip-path="url(#clip0)"><path d="M.95 63.05h48.158V13.456L36.603.95H.95v62.098z" fill="#E6E6E6"/><path d="M49.108 13.457H36.603V.95" fill="#CCC"/><path d="M62.837 24.229L51.886 50.995l-6.59 6.068-.448-8.947L55.8 21.349a1.498 1.498 0 011.95-.818l4.27 1.747a1.496 1.496 0 01.817 1.95z" fill="#4FD68D"/><path d="M59.885 21.405l-14.59 35.657-.447-8.946L55.8 21.349a1.497 1.497 0 011.95-.818l2.135.874z" fill="#009846"/><path d="M51.886 50.995l-6.59 6.068-.035-.698-.413-8.25 7.038 2.88zm10.951-26.766l-2.12 5.184-7.038-2.88 2.12-5.184a1.497 1.497 0 011.951-.818l4.27 1.747a1.496 1.496 0 01.817 1.95z" fill="#545D68"/><path d="M59.61 21.293l-2.687 6.568-3.244-1.327 2.12-5.185a1.498 1.498 0 011.952-.818l1.86.762zM44.848 48.116l3.244 1.327-2.831 6.922-.413-8.25z" fill="#3B454F"/><path d="M63.709 22.717a2.428 2.428 0 00-1.33-1.318l-4.27-1.747a2.429 2.429 0 00-1.87.008 2.432 2.432 0 00-1.32 1.33l-4.86 11.879V13.456c0-.251-.1-.494-.278-.672L37.275.278A.95.95 0 0036.603 0H.951A.95.95 0 000 .95v7.336a.95.95 0 001.9 0V1.901h33.752v11.556c0 .524.426.95.95.95H48.16v23.108l-4.19 10.24a.944.944 0 00-.07.408l.447 8.947a.95.95 0 001.593.652l2.22-2.043v6.38H1.9V12.09a.95.95 0 10-1.901 0v50.96c0 .525.426.951.95.951H49.11a.95.95 0 00.95-.95V53.97l2.47-2.274a.96.96 0 00.237-.34l4.309-10.532a.95.95 0 00-1.76-.72l-3.95 9.653-5.278-2.16 8.111-19.823 5.279 2.16-2.799 6.84a.95.95 0 001.76.72l5.28-12.904a2.43 2.43 0 00-.01-1.872zM37.553 3.245l9.262 9.261h-9.262V3.245zm8.32 46.317l4.27 1.747-4 3.68-.27-5.427zm16.085-25.693l-1.762 4.304-5.278-2.16 1.761-4.304a.541.541 0 01.294-.295.54.54 0 01.417-.003l4.27 1.747a.54.54 0 01.295.294.54.54 0 01.003.417z" fill="#000"/><path d="M31.631 10.377H19.846a.95.95 0 100 1.9H31.63a.95.95 0 000-1.9zM7.351 31.224h7.515a.95.95 0 00.95-.951v-6.732l1.418-1.805a.95.95 0 00-1.494-1.175l-.98 1.247H7.351a.95.95 0 00-.95.95v7.515c0 .525.425.95.95.95zm.95-7.515h4.966l-1.513 1.925-1.058-1.058a.95.95 0 00-1.344 1.344l1.816 1.816a.95.95 0 001.419-.085l1.328-1.69v3.362H8.301v-5.614zm33.468-.425h-20.34a.95.95 0 000 1.902h20.34a.95.95 0 100-1.902zM21.43 29.748h16.347a.95.95 0 000-1.901H21.43a.95.95 0 100 1.9zM6.4 42.755c0 .525.426.951.951.951h7.515a.95.95 0 00.95-.95v-6.732l1.418-1.806a.95.95 0 00-1.494-1.174l-.98 1.247H7.351a.95.95 0 00-.95.95v7.514zm1.901-6.564h4.966l-1.513 1.926-1.058-1.058a.95.95 0 00-1.344 1.344l1.816 1.815a.95.95 0 001.419-.085l1.328-1.69v3.362H8.301v-5.614zm33.468-.424h-20.34a.95.95 0 000 1.9h20.34a.95.95 0 100-1.9zM21.43 42.23h6.083a.95.95 0 000-1.9H21.43a.95.95 0 100 1.9zM6.4 55.238c0 .525.426.95.951.95h7.515a.95.95 0 00.95-.95v-7.514a.95.95 0 00-.95-.951H7.35a.95.95 0 00-.95.95v7.515zm1.901-6.564h5.614v5.613H8.301v-5.613zm34.419.526a.95.95 0 00-.951-.951h-20.34a.95.95 0 000 1.9h20.34a.95.95 0 00.95-.95zm-21.29 3.611a.95.95 0 000 1.901h17.297a.95.95 0 100-1.901H21.43z" fill="#000"/></g><defs><clipPath id="clip0"><path fill="#fff" d="M0 0h64v64H0z"/></clipPath></defs></svg>
